X: 28310
T: Muckin' O' Geordie's Byre, The
R: jig
M: 6/8
K: Dmajor
A3-AFA d2e f2f|{a}g2e f2d e2d B/c/dB|
ABA AFA d2e f2a|{b}afd efe d2d-|1 dcB:|2 def||
gbg gbg faf fed|[e3A3]-[Ae]de fed ~B3|
ABA AFA [D2d2]e f2a|{b}afd efe d2d-|1 def:|2 dcB||

